check-box-outline.svg

<svg fill="currentColor" viewBox="0 0 24 24"><path d="M19 3H5a2 2 0 0 0-2 2v14a2 2 0 0 0 2 2h14a2 2 0 0 0 2-2V5a2 2 0 0 0-2-2m0 2v14H5V5zm-9 12-4-4 1.41-1.42L10 14.17l6.59-6.59L18 9"/></svg>

<svg  viewBox="0 0 24 24" fill="currentColor"><path  d="M19,3H5A2,2 0 0,0 3,5V19A2,2 0 0,0 5,21H19A2,2 0 0,0 21,19V5A2,2 0 0,0 19,3M19,5V19H5V5H19M10,17L6,13L7.41,11.58L10,14.17L16.59,7.58L18,9"/></svg>
